X: 2171
T: Şevk`efzâ Sazsemâîsi
C: Said Dede
O: Turkey
F: http://compmusic.upf.edu/node/140
N: sevkefza--sazsemaisi--aksaksemai----said_dede
N: makam= sevkefza
N: form= sazsemaisi
N: usul= aksaksemai = 10/8
M: 10/8
L: 1/16
K: C _B _7/8d  
Q: 1/4=138
%%MIDI tuningsystem comma53
c4 g2f3ed2 e2c4_1/4B2  | c4 d2e3de2 g2f4z2  | \
w:  1. HANE  |   | 
e2f2 g2_7/8a2 g2f2 a2g4f2  | 
w:   | 
g4 f2g2 _7/8aggf fef4z2  | f4 e2f3ef2 g_7/8agf e4  | 
w:   |   | 
e4 d2e3de2 fgf2 e2d2  | c4 _7/8a2g2 a2f2 g2e4d2  | \
w:   |   | 
c4 d2gf edcB ABc4z2  | 
w:   | 
c4 B2A2 G2A2 B2c2 d2e2  | c4 B2c2 dccB BAB4z2  | \
w:  TESLİM  |   | 
F4 G2A4B4c2 =d2cB  | 
w:   | 
A4 F2G3AGF EGF4z2  | c4 _1/4B2d2 c2e2 d2f4e2  | \
w:   |  2. HANE  | 
d4 g2f2 g2e2 f2d4e2  | 
w:   | 
c4 c'2_1/4b2 c'2_7/8a2 b2g4a2  | f4 g2g3fe2 f2g4z2  | \
w:   |   | 
g4 f2g3fg2 _7/8a2ag f4  | 
w:   | 
f4 e2f3ef2 g2gf e4  | c4 d2e2 f2g2 f2e4z2  | \
w:   |   | 
c4 d2gf edcB ABc4z2  | 
w:   | 
c4 B2A2 G2A2 B2c2 d2e2  | c4 B2c2 dccB BAB4z2  | \
w:  TESLİM  |   | 
F4 G2A4B4c2 =d2cB  | 
w:   | 
A4 F2G3AGF EGF4z2  | g4 f2e3c=d2 e2f2 g2a2  | \
w:   |  3. HANE  | 
b4 a2g3ab2 {c'}baa4z2  | 
w:   | 
a4 a2a3fg2 a2b2 =d'2c'b  | a4 f2g3agf egf4z2  | \
w:   |   | 
f3c' b2a4g4f4e2  | 
w:   | 
f4 g2a3gf2 e=dc4z2  | c3g f2_e4=d4c2 {d}cBAG  | \
w:   |   | 
F4 c2ce dccB ABc4z2  | 
w:   | 
c4 B2A2 G2A2 B2c2 d2e2  | c4 B2c2 dccB BAB4z2  | \
w:  TESLİM  |   | 
F4 G2A4B4c2 =d2cB  | 
w:   | 
A4 F2G3AGF EGF4z2  | z24  | F4c4c4_1/4B2d2c6z2  | \
w:   |  |  4. HANE  | 
c2e2d2e2c2d2_1/4B2d2c6z2  | 
w:   | 
c2e2d2f2e2g2f2_7/8a2g2f2e2d2  | c2e2d2e2c2d2_1/4B2d2c6z2  | 
w:   |   | 
F4c4c4_1/4B2d2c6z2  | c2e2d2e2c2d2_1/4B2d2c6z2  | \
w:   |   | 
c2e2d2f2e2g2f2_7/8a2g2f2e2d2  | 
w:   | 
c2e2d2e2c2d2_1/4B2d2c6z2  | f4e4f4e2g2f6z2  | \
w:   |   | 
e2f2g2_7/8a2g2f2e2d2e6z2  | 
w:   | 
f2_7/8a2g2f2_1/4b2a2g2f2e2f2e2d2  | \
w:   | 
c2d2e2d2e2c2d2_1/4B2c6z2  | 
w:   | 
f4e4f4e2g2f6z2  | e2f2g2_7/8a2g2f2e2d2e6z2  | \
w:   |   | 
f2_7/8a2g2f2_1/4b2a2g2f2e2f2e2d2  | 
w:   | 
c2d2e2d2e2c2d2_1/4B2c6z2  | z20  | c4 B2A2 G2A2 B2c2 d2e2  | \
w:   |  |  TESLİM  | 
c4 B2c2 dccB BAB4z2  | 
w:   | 
F4 G2A4B4c2 =d2cB  | A4 F2G3AGF EGF4z2  | |


